!!!OTL: "Liebesprobe " ACH SCHIFFMAN LIEBER SCHIFFMAN HALT
!!!ARE: Europa, Mitteleuropa, Deutschland, Nord - Deutschland
!!!SCT: Z1022
!!!YEM: Copyright 1995, estate of Helmut Schaffrath.
**kern
*ICvox
*Ivox
*M2/4
*k[b-e-]
*g:
{8g
=1
8g
8a
8b-
8cc
=2
8dd
16gg
16ee-
4dd}
=3
{4gg
8b-
8cc
=4
4.dd}
{8ee-
=5
8ee-
8cc
8gg
16ffn
16ee-
=6
8dd
8b-
4g}
=7
{4b-
8ee-
8cc
=8
8b-
8a
8g}
{8gg
=9
8ff#
8dd
8ee-
8cc#
=10
4dd
8r}
{8cc
=11
8b-
8g
16b-
16a
8f#
=12
8a
4g}
{8dd
=13
8dd
8dd
8dd
16cc
16b-
=14
16dd
16cc
8a
8a}
{16b-
16cc
=15
8cc
8cc
8.ee-
16cc
=16
16cc
16b-
8b-
4g}
=17
{4gg
8b-
8cc
=18
4dd
8r}
{8ee-
=19
8ee-
8cc
8gg
16ff#
16ee-
=20
8dd
8b-
8g
16r}
{16g
=21
8cc
8cc
8ee-
8cc
=22
16cc
16b-
8a
8.g}
{16gg
=23
8ff#
8dd
8ee-
8cc#
=24
4dd
8r}
{8cc
=25
8b-
8g
16b-
16a
8f#
=26
4g
8r}
{16b-
16cc
=27
8dd
8dd
8dd
16cc
16b-
=28
16dd
16cc
8a
8a}
{16cc
16cc
=29
8cc
8cc
8ee-
16cc
16cc
=30
16cc
16b-
8g
8g}
{8d
=31
8g
8a
8b-
8cc
=32
8dd
16gg
16ee-
8dd}
{8gg
=33
8ff#
8dd
8ee-
8cc#
=34
4.dd}
{8cc
=35
8b-
8g
16b-
16a
8f#
=36
8a
4g}
==
!!!AGN: Romanze, Ballade
!!!ONB: ESAC (Essen Associative Code) Database: ZUCCAL
!!!AMT: simple duple
!!!AIN: vox
!!!EED: Helmut Schaffrath
!!!EEV: 1.0
*-
